assets/icons/rulesbutton.svg

<svg width="168" height="56" viewBox="0 0 168 56" fill="none" xmlns="http://www.w3.org/2000/svg">
<rect width="168" height="56" rx="28" fill="url(#paint0_linear_6606_858)"/>
<rect x="1" y="1" width="166" height="54" rx="27" stroke="url(#paint1_linear_6606_858)" stroke-width="2"/>
<rect x="4.5" y="4.5" width="159" height="47" rx="23.5" fill="url(#paint2_linear_6606_858)" stroke="#320033"/>
<g style="mix-blend-mode:overlay">
<rect x="11.4545" y="7" width="145.091" height="28" rx="14" fill="url(#paint3_linear_6606_858)"/>
</g>
<path d="M63.3026 34V22.3636H68.1094C68.9806 22.3636 69.7325 22.5208 70.3651 22.8352C71.0014 23.1458 71.492 23.5928 71.8366 24.1761C72.1813 24.7557 72.3537 25.4432 72.3537 26.2386C72.3537 27.0455 72.1776 27.7311 71.8253 28.2955C71.473 28.8561 70.973 29.2841 70.3253 29.5795C69.6776 29.8712 68.9105 30.017 68.0241 30.017H64.9844V27.8011H67.5014C67.9257 27.8011 68.2798 27.7462 68.5639 27.6364C68.8518 27.5227 69.0696 27.3523 69.2173 27.125C69.3651 26.8939 69.4389 26.5985 69.4389 26.2386C69.4389 25.8788 69.3651 25.5814 69.2173 25.3466C69.0696 25.108 68.8518 24.9299 68.5639 24.8125C68.276 24.6913 67.9219 24.6307 67.5014 24.6307H66.1151V34H63.3026ZM69.8537 28.6818L72.7514 34H69.6832L66.8423 28.6818H69.8537ZM79.527 30.233V25.2727H82.2997V34H79.652V32.375H79.5611C79.3679 32.9091 79.0384 33.3333 78.5724 33.6477C78.1103 33.9583 77.5516 34.1136 76.8963 34.1136C76.3016 34.1136 75.7789 33.9773 75.3281 33.7045C74.8774 33.4318 74.527 33.0511 74.277 32.5625C74.027 32.0701 73.9001 31.4943 73.8963 30.8352V25.2727H76.6747V30.2898C76.6785 30.7633 76.8035 31.1364 77.0497 31.4091C77.2959 31.6818 77.6312 31.8182 78.0554 31.8182C78.3319 31.8182 78.58 31.7576 78.7997 31.6364C79.0232 31.5114 79.1993 31.3314 79.3281 31.0966C79.4607 30.858 79.527 30.5701 79.527 30.233ZM86.8466 22.3636V34H84.0682V22.3636H86.8466ZM92.6946 34.1648C91.7817 34.1648 90.9938 33.9848 90.331 33.625C89.6719 33.2614 89.1643 32.7443 88.8082 32.0739C88.456 31.3996 88.2798 30.5985 88.2798 29.6705C88.2798 28.7689 88.4579 27.9811 88.8139 27.3068C89.17 26.6288 89.6719 26.1023 90.3196 25.7273C90.9673 25.3485 91.7306 25.1591 92.6094 25.1591C93.2306 25.1591 93.7988 25.2557 94.3139 25.4489C94.8291 25.642 95.2741 25.928 95.6491 26.3068C96.0241 26.6856 96.3158 27.1534 96.5241 27.7102C96.7325 28.2633 96.8366 28.8977 96.8366 29.6136V30.3068H89.2514V28.6932H94.2514C94.2476 28.3977 94.1776 28.1345 94.0412 27.9034C93.9048 27.6723 93.7173 27.4924 93.4787 27.3636C93.2438 27.2311 92.973 27.1648 92.6662 27.1648C92.3556 27.1648 92.0772 27.2348 91.831 27.375C91.5848 27.5114 91.3897 27.6989 91.2457 27.9375C91.1018 28.1723 91.026 28.4394 91.0185 28.7386V30.3807C91.0185 30.7367 91.0885 31.0492 91.2287 31.3182C91.3688 31.5833 91.5677 31.7898 91.8253 31.9375C92.0829 32.0852 92.3897 32.1591 92.7457 32.1591C92.992 32.1591 93.2154 32.125 93.4162 32.0568C93.617 31.9886 93.7893 31.8883 93.9332 31.7557C94.0772 31.6231 94.1851 31.4602 94.2571 31.267L96.8082 31.3409C96.7022 31.9129 96.4692 32.411 96.1094 32.8352C95.7533 33.2557 95.2855 33.5833 94.706 33.8182C94.1264 34.0492 93.456 34.1648 92.6946 34.1648ZM105.875 27.9375L103.324 28.0057C103.297 27.8239 103.225 27.6629 103.108 27.5227C102.991 27.3788 102.837 27.267 102.648 27.1875C102.462 27.1042 102.246 27.0625 102 27.0625C101.678 27.0625 101.403 27.1269 101.176 27.2557C100.953 27.3845 100.843 27.5587 100.847 27.7784C100.843 27.9489 100.911 28.0966 101.051 28.2216C101.195 28.3466 101.451 28.447 101.818 28.5227L103.5 28.8409C104.371 29.0076 105.019 29.2841 105.443 29.6705C105.871 30.0568 106.087 30.5682 106.091 31.2045C106.087 31.803 105.909 32.3239 105.557 32.767C105.208 33.2102 104.731 33.5549 104.125 33.8011C103.519 34.0436 102.826 34.1648 102.045 34.1648C100.799 34.1648 99.8163 33.9091 99.0966 33.3977C98.3807 32.8826 97.9716 32.1932 97.8693 31.3295L100.614 31.2614C100.674 31.5795 100.831 31.822 101.085 31.9886C101.339 32.1553 101.663 32.2386 102.057 32.2386C102.413 32.2386 102.703 32.1723 102.926 32.0398C103.15 31.9072 103.263 31.7311 103.267 31.5114C103.263 31.3144 103.176 31.1572 103.006 31.0398C102.835 30.9186 102.568 30.8239 102.205 30.7557L100.682 30.4659C99.8068 30.3068 99.1553 30.0133 98.7273 29.5852C98.2992 29.1534 98.0871 28.6042 98.0909 27.9375C98.0871 27.3542 98.2424 26.8561 98.5568 26.4432C98.8712 26.0265 99.3182 25.7083 99.8977 25.4886C100.477 25.2689 101.161 25.1591 101.949 25.1591C103.131 25.1591 104.063 25.4072 104.744 25.9034C105.426 26.3958 105.803 27.0739 105.875 27.9375Z" fill="white"/>
<defs>
<linearGradient id="paint0_linear_6606_858" x1="84" y1="0" x2="84" y2="56" gradientUnits="userSpaceOnUse">
<stop stop-color="#FFEB3C"/>
<stop offset="0.135" stop-color="#FF730E"/>
<stop offset="0.425" stop-color="#B3330A"/>
<stop offset="0.66" stop-color="#FFE600"/>
<stop offset="1" stop-color="#FF730E"/>
</linearGradient>
<linearGradient id="paint1_linear_6606_858" x1="84" y1="0" x2="84" y2="56" gradientUnits="userSpaceOnUse">
<stop stop-color="#FF730E"/>
<stop offset="0.295" stop-color="#C03900"/>
<stop offset="0.525" stop-color="#DBFF00"/>
<stop offset="0.97" stop-color="#CE7C00"/>
</linearGradient>
<linearGradient id="paint2_linear_6606_858" x1="84" y1="4" x2="84" y2="52" gradientUnits="userSpaceOnUse">
<stop stop-color="#277DFF"/>
<stop offset="0.395" stop-color="#154CB7"/>
<stop offset="0.78" stop-color="#061072"/>
<stop offset="1" stop-color="#02408A"/>
</linearGradient>
<linearGradient id="paint3_linear_6606_858" x1="84" y1="7" x2="84" y2="35" gradientUnits="userSpaceOnUse">
<stop stop-color="white"/>
<stop offset="1" stop-color="white" stop-opacity="0"/>
</linearGradient>
</defs>
</svg>

<svg xmlns="http://www.w3.org/2000/svg" width="168" height="56" fill="none" xmlns:v="https://vecta.io/nano"><rect width="168" height="56" rx="28" fill="url(#A)"/><rect x="1" y="1" width="166" height="54" rx="27" stroke="url(#B)" stroke-width="2"/><rect x="4.5" y="4.5" width="159" height="47" rx="23.5" fill="url(#C)" stroke="#320033"/><rect x="11.455" y="7" width="145.091" height="28" rx="14" fill="url(#D)" style="mix-blend-mode:overlay"/><path d="M63.303 34V22.364h4.807c.871 0 1.623.157 2.256.472s1.127.758 1.472 1.341.517 1.267.517 2.063c0 .807-.176 1.492-.528 2.057s-.852.989-1.5 1.284-1.415.438-2.301.438h-3.04v-2.216h2.517c.424 0 .778-.055 1.063-.165s.506-.284.653-.511.222-.526.222-.886-.074-.657-.222-.892-.365-.417-.653-.534-.642-.182-1.062-.182h-1.386V34h-2.812zm6.551-5.318L72.751 34h-3.068l-2.841-5.318h3.011zm9.673 1.551v-4.96H82.3V34h-2.648v-1.625h-.091c-.193.534-.523.958-.989 1.273s-1.021.466-1.676.466c-.595 0-1.117-.136-1.568-.409s-.801-.653-1.051-1.142-.377-1.068-.381-1.727v-5.562h2.778v5.017c.004.474.129.847.375 1.119s.582.409 1.006.409c.276 0 .525-.061.744-.182s.4-.305.528-.54.199-.526.199-.864zm7.32-7.869V34h-2.778V22.364h2.778zm5.848 11.801c-.913 0-1.701-.18-2.364-.54s-1.167-.881-1.523-1.551-.528-1.475-.528-2.403c0-.902.178-1.689.534-2.364s.858-1.204 1.506-1.579 1.411-.568 2.29-.568c.621 0 1.189.097 1.705.29a3.66 3.66 0 0 1 1.335.858 3.91 3.91 0 0 1 .875 1.403c.208.553.313 1.188.313 1.903v.693h-7.585v-1.614h5c-.004-.296-.074-.559-.21-.79a1.43 1.43 0 0 0-.562-.54c-.235-.133-.506-.199-.812-.199s-.589.07-.835.21-.441.324-.585.563a1.58 1.58 0 0 0-.227.801v1.642a2 2 0 0 0 .21.938c.14.265.339.472.597.619a1.82 1.82 0 0 0 .92.222c.246 0 .47-.034.671-.102a1.43 1.43 0 0 0 .517-.301c.144-.133.252-.296.324-.489l2.551.074c-.106.572-.339 1.07-.699 1.494s-.824.748-1.403.983-1.25.347-2.011.347zm13.18-6.227l-2.551.068a.96.96 0 0 0-.216-.483 1.16 1.16 0 0 0-.46-.335c-.186-.083-.402-.125-.648-.125-.322 0-.597.064-.824.193s-.333.303-.329.523c-.004.17.064.318.204.443s.4.225.767.301l1.682.318c.871.167 1.519.443 1.943.83s.644.898.648 1.534c-.004.599-.182 1.119-.534 1.563s-.826.788-1.432 1.034-1.299.364-2.08.364c-1.246 0-2.229-.256-2.948-.767s-1.125-1.205-1.227-2.068l2.745-.068c.06.318.217.561.471.727s.578.25.972.25c.356 0 .646-.066.869-.199s.337-.309.341-.528a.56.56 0 0 0-.261-.472c-.171-.121-.438-.216-.801-.284l-1.523-.29c-.875-.159-1.527-.453-1.955-.881s-.64-.981-.636-1.648c-.004-.583.151-1.081.466-1.494s.761-.735 1.341-.955 1.263-.33 2.051-.33c1.182 0 2.114.248 2.795.744s1.059 1.17 1.131 2.034z" fill="#fff"/><defs><linearGradient id="A" x1="84" y1="0" x2="84" y2="56" gradientUnits="userSpaceOnUse"><stop stop-color="#ffeb3c"/><stop offset=".135" stop-color="#ff730e"/><stop offset=".425" stop-color="#b3330a"/><stop offset=".66" stop-color="#ffe600"/><stop offset="1" stop-color="#ff730e"/></linearGradient><linearGradient id="B" x1="84" y1="0" x2="84" y2="56" gradientUnits="userSpaceOnUse"><stop stop-color="#ff730e"/><stop offset=".295" stop-color="#c03900"/><stop offset=".525" stop-color="#dbff00"/><stop offset=".97" stop-color="#ce7c00"/></linearGradient><linearGradient id="C" x1="84" y1="4" x2="84" y2="52" gradientUnits="userSpaceOnUse"><stop stop-color="#277dff"/><stop offset=".395" stop-color="#154cb7"/><stop offset=".78" stop-color="#061072"/><stop offset="1" stop-color="#02408a"/></linearGradient><linearGradient id="D" x1="84" y1="7" x2="84" y2="35" gradientUnits="userSpaceOnUse"><stop stop-color="#fff"/><stop offset="1" stop-color="#fff" stop-opacity="0"/></linearGradient></defs></svg>
